X:1
T:James Gibb editions
T:This is the day of Light - Barnby
%%score [ ( 1 2 ) ( 3 4 ) ]
L:1/8
Q:1/4=147
M:2/2
K:C
V:1 treble nm="Midi_74"
V:2 treble 
V:3 bass nm="Midi_74"
V:4 bass 
V:1
"^S.M.""^This is the day of light""^Joseph Barnby\n(1838-96)"!f! G4 c2"^1" [GB]2 | A4 d4 | c8 || %3
 e4 d2 c2 | B4 A4 | G6 || G2 |"^1" G6 A2 | _B4 c4 |"^1" A4 ||!ff! B4 | c4 f4 | e8 | d8 | c8 || c8 | %16
 c8 |] %17
V:2
 E4 F2 x2 | A4 G4- | E8 || ^F4 G2 E2 | D4 ^F4 | G6 || D2 | C6 E2 | F4 G4 | C4 || E4 | E4 A4 | G8 | %13
 F8 | E8 || F8 | E8 |] %17
V:3
 C4 C2 C2 | C4 B,4 | C8 || C4 B,2 G,2 | D,4 C4 | B,6 || %6
"^cresc.""^1  This is the day of light;\nLet there be light today;\nO Dayspring, rise upon our night,\nAnd chase its gloom away.\n\n2  This is the day of rest:\nOur failing strength renew;\nOn weary brain and troubled breast\nShed Thou Thy freshening dew." B,2 | %7
 C6 C2 | _B,4 G,4 | %9
"^5  This is the first of days:\nSend forth Thy quickening breath,\nAnd wake dead souls to love and praise, \nO Vanquisher of death!" A,4 || %10
 ^G,4 | A,4 C4 | %12
"^3  This is the day of peace:\nThy peace our spirits fill;\nBid Thou the blasts of discord cease,\nThe waves of strife be still.\n\n4  This is the day of prayer:\nLet earth to heaven draw near;\nLift up our hearts to seek Thee there,\nCome down to meet us here." C8- | %13
 C4 B,4 | C8 || A,8 | G,8 |] %17
V:4
 C,4 D,2 E,2 | F,4 G,4 | C,8 || A,,4 B,,2 C,2 | D,4 D,4 | G,6 || !courtesy!=F,2 | E,6 C,2 | %8
 D,4 E,4 | F,4 || E,4 | A,4 F,4 | G,8 | G,,8 | C,8 || F,8 | C,8 |] %17

